packages/astro-components-stencil/src/icons/control-camera.svg

<svg width="24" height="24" viewBox="0 0 24 24" fill="none" xmlns="http://www.w3.org/2000/svg">
<path fill-rule="evenodd" clip-rule="evenodd" d="M9.34997 6.41997C8.85997 5.93997 8.85997 5.13997 9.34997 4.64997L11.29 2.69997C11.68 2.30997 12.31 2.30997 12.7 2.69997L14.65 4.64997C15.14 5.13997 15.14 5.92997 14.65 6.41997C14.16 6.89997 13.38 6.89997 12.89 6.41997L12 5.53997L11.11 6.41997C10.62 6.89997 9.83997 6.89997 9.34997 6.41997ZM17.58 9.34997C17.1 9.83997 17.1 10.62 17.58 11.11L18.46 12L17.58 12.89C17.1 13.38 17.1 14.16 17.58 14.65C18.07 15.14 18.86 15.14 19.35 14.65L21.3 12.7C21.69 12.31 21.69 11.68 21.3 11.29L19.35 9.33997C18.86 8.85997 18.06 8.85997 17.58 9.34997ZM4.64997 9.34997L2.69997 11.3C2.30997 11.69 2.30997 12.32 2.69997 12.71L4.64997 14.66C5.13997 15.15 5.92997 15.15 6.41997 14.66C6.89997 14.17 6.89997 13.39 6.41997 12.9L5.53997 12L6.41997 11.11C6.89997 10.62 6.89997 9.83997 6.41997 9.34997C5.93997 8.85997 5.13997 8.85997 4.64997 9.34997ZM11.11 17.58L12 18.46L12.9 17.58C13.39 17.1 14.17 17.1 14.66 17.58C15.15 18.07 15.15 18.86 14.66 19.35L12.71 21.3C12.32 21.69 11.69 21.69 11.3 21.3L9.34997 19.35C8.85997 18.86 8.85997 18.07 9.34997 17.58C9.83997 17.1 10.62 17.1 11.11 17.58ZM8.99997 12C8.99997 13.6568 10.3431 15 12 15C13.6568 15 15 13.6568 15 12C15 10.3431 13.6568 8.99997 12 8.99997C10.3431 8.99997 8.99997 10.3431 8.99997 12Z" fill="black"/>
</svg>

<svg xmlns="http://www.w3.org/2000/svg" viewBox="0 0 24 24"><g xmlns="http://www.w3.org/2000/svg" id="control-camera" fill-rule="nonzero">
            <path d="M4.65 9.35L2.7 11.3a.996.996 0 000 1.41l1.95 1.95c.49.49 1.28.49 1.77 0 .48-.49.48-1.27 0-1.76l-.88-.9.88-.89c.48-.49.48-1.27 0-1.76a1.25 1.25 0 00-1.77 0zm12.93 0c-.48.49-.48 1.27 0 1.76l.88.89-.88.89c-.48.49-.48 1.27 0 1.76.49.49 1.28.49 1.77 0l1.95-1.95a.996.996 0 000-1.41l-1.95-1.95c-.49-.48-1.29-.48-1.77.01zM12 18.46l-.89-.88c-.49-.48-1.27-.48-1.76 0a1.25 1.25 0 000 1.77l1.95 1.95c.39.39 1.02.39 1.41 0l1.95-1.95c.49-.49.49-1.28 0-1.77-.49-.48-1.27-.48-1.76 0l-.9.88zM9.35 6.42a1.25 1.25 0 010-1.77l1.94-1.95a.996.996 0 011.41 0l1.95 1.95c.49.49.49 1.28 0 1.77-.49.48-1.27.48-1.76 0L12 5.54l-.89.88c-.49.48-1.27.48-1.76 0zM12 15a3 3 0 110-6 3 3 0 010 6z"/>
        </g></svg>
